Numix-GalliumOS/32/places/start-here.svg

<svg width="32" xmlns="http://www.w3.org/2000/svg" height="32" viewBox="0 0 32 32" xmlns:xlink="http://www.w3.org/1999/xlink">
<path style="fill:#dc322f" d="M 32 16 C 32.007812 24.835938 24.839844 32 16 32 C 7.160156 32 -0.0078125 24.835938 0 16 C -0.0078125 7.164062 7.160156 0 16 0 C 24.839844 0 32.007812 7.164062 32 16 Z "/>
<path style="fill:none;stroke:#f9f9f9;stroke-linecap:round;stroke-width:7.299" d="M 73.34375 59.15625 L 73.34375 75.1875 M 73.34375 196.8125 L 73.34375 113.84375 C 73.34375 83.5625 97.75 59.15625 128.0625 59.15625 C 158.375 59.15625 182.78125 83.5625 182.78125 113.84375 L 182.78125 196.8125 " transform="scale(.125)"/>
</svg>

<svg xmlns="http://www.w3.org/2000/svg" viewBox="0 0 32 32">
 <path d="m 32 16 c 0.008 8.836 -7.16 16 -16 16 c -8.84 0 -16.01 -7.164 -16 -16 c -0.008 -8.836 7.16 -16 16 -16 c 8.84 0 16.01 7.164 16 16 Z" style="fill:#dc322f"/>
 <path d="m 73.34 59.16 l 0 16.03 m 0 121.63 l 0 -82.969 c 0 -30.28 24.406 -54.688 54.719 -54.688 c 30.31 0 54.719 24.406 54.719 54.688 l 0 82.969" transform="scale(.125)" style="fill:none;stroke:#f9f9f9;stroke-linecap:round;stroke-width:7.299"/>
</svg>
